src/user-square-fill.svg

<svg width="24" height="24" viewBox="0 0 24 24" xmlns="http://www.w3.org/2000/svg">
<path fill-rule="evenodd" clip-rule="evenodd" d="M3 5V19C3 20.1 3.89 21 5 21H19C20.1 21 21 20.1 21 19V5C21 3.9 20.1 3 19 3H5C3.89 3 3 3.9 3 5V5ZM15 10C15 11.66 13.66 13 12 13C10.34 13 9 11.66 9 10C9 8.34 10.34 7 12 7C13.66 7 15 8.34 15 10V10ZM6 18C6 16 10 14.9 12 14.9C14 14.9 18 16 18 18V19H6V18V18Z" fill="currentColor"/>
</svg>

<svg width="24" height="24" viewBox="0 0 24 24" xmlns="http://www.w3.org/2000/svg" xmlns:xlink="http://www.w3.org/1999/xlink">
  <path d="M3 5v14a2 2 0 0 0 2 2h14c1.1 0 2-.9 2-2V5c0-1.1-.9-2-2-2H5a2 2 0 0 0-2 2zm12 5c0 1.66-1.34 3-3 3s-3-1.34-3-3 1.34-3 3-3 3 1.34 3 3zm-9 8c0-2 4-3.1 6-3.1s6 1.1 6 3.1v1H6v-1z" fill="currentColor"/>
</svg>
